ui/StatusQ/src/assets/img/icons/strikethrough.svg

<svg fill="none" height="20" viewBox="0 0 20 20" width="20" xmlns="http://www.w3.org/2000/svg"><path clip-rule="evenodd" d="m9.16648 2.97119c.82808-.14275 1.68712-.07 2.47132.21151.7842.28154 1.4678.76294 1.9554 1.39537.4886.63382.7568 1.38969.7568 2.17195h-1.2c0-.50331-.1717-1.00415-.5072-1.43925-.3365-.43649-.8243-.78821-1.4105-.99864-.5862-.21046-1.23518-.26643-1.86196-.15838-.62681.10806-1.19253.37329-1.62903.75159-.4357.3776-.72036.84773-.83446 1.34486-.11379.49581-.05654 1.01093.16995 1.48481.22734.47567.61937.89629 1.14049 1.19807.5215.30199 1.14213.46694 1.78271.46694h5v1.19998h-1.8425c.3537.3302.6428.7174.8484 1.1476.3412.7138.4324 1.5056.2568 2.2707-.1752.7637-.6049 1.4518-1.2181 1.9832-.6124.5308-1.383.8846-2.2111 1.0274-.8281.1427-1.6871.07-2.47129-.2116-.78426-.2815-1.4678-.7629-1.95539-1.3953-.48866-.6338-.75682-1.3897-.75682-2.172h1.2c0 .5033.17171 1.0042.50716 1.4393.33652.4365.82431.7882 1.4105.9986.58626.2105 1.23524.2664 1.86204.1584.6268-.1081 1.1925-.3733 1.629-.7516.4357-.3776.7204-.8477.8344-1.3449.1138-.4958.0566-1.0109-.1699-1.4848-.2273-.4756-.6194-.8963-1.1405-1.198-.5215-.302-1.1421-.467-1.7827-.467h-5v-1.19998h1.84255c-.35373-.33014-.64286-.7174-.84845-1.14754-.34117-.71384-.43243-1.50565-.25684-2.27072.17529-.76374.60493-1.45181 1.21813-1.98325.61239-.53073 1.38304-.88457 2.21109-1.02732z" fill="#09101c" fill-rule="evenodd"/></svg>

<svg width="20" height="20" viewBox="0 0 20 20" fill="none" xmlns="http://www.w3.org/2000/svg">
<path fill-rule="evenodd" clip-rule="evenodd" d="M9.16648 2.97119C9.99456 2.82844 10.8536 2.90119 11.6378 3.1827C12.422 3.46424 13.1056 3.94564 13.5932 4.57807C14.0818 5.21189 14.35 5.96776 14.35 6.75002H13.15C13.15 6.24671 12.9783 5.74587 12.6428 5.31077C12.3063 4.87428 11.8185 4.52256 11.2323 4.31213C10.6461 4.10167 9.99712 4.0457 9.37034 4.15375C8.74353 4.26181 8.17781 4.52704 7.74131 4.90534C7.30561 5.28294 7.02095 5.75307 6.90685 6.2502C6.79306 6.74601 6.85031 7.26113 7.0768 7.73501C7.30414 8.21068 7.69617 8.6313 8.21729 8.93308C8.73879 9.23507 9.35942 9.40002 10 9.40002H15V10.6H13.1575C13.5112 10.9302 13.8003 11.3174 14.0059 11.7476C14.3471 12.4614 14.4383 13.2532 14.2627 14.0183C14.0875 14.782 13.6578 15.4701 13.0446 16.0015C12.4322 16.5323 11.6616 16.8861 10.8335 17.0289C10.0054 17.1716 9.1464 17.0989 8.36221 16.8173C7.57795 16.5358 6.89441 16.0544 6.40682 15.422C5.91816 14.7882 5.65 14.0323 5.65 13.25H6.85C6.85 13.7533 7.02171 14.2542 7.35716 14.6893C7.69368 15.1258 8.18147 15.4775 8.76766 15.6879C9.35392 15.8984 10.0029 15.9543 10.6297 15.8463C11.2565 15.7382 11.8222 15.473 12.2587 15.0947C12.6944 14.7171 12.9791 14.247 13.0931 13.7498C13.2069 13.254 13.1497 12.7389 12.9232 12.265C12.6959 11.7894 12.3038 11.3687 11.7827 11.067C11.2612 10.765 10.6406 10.6 10 10.6H5V9.40002H6.84255C6.48882 9.06988 6.19969 8.68262 5.9941 8.25248C5.65293 7.53864 5.56167 6.74683 5.73726 5.98176C5.91255 5.21802 6.34219 4.52995 6.95539 3.99851C7.56778 3.46778 8.33843 3.11394 9.16648 2.97119Z" fill="#09101C"/>
</svg>
